X: 1063
T:Sport of the Chase, The (A27)
N: page A27
N: heptatonic
R:slip jig
Z:Also on A, #42
Z:id:hn-slipjig-41
M:9/8
K:G
"G"G2G B2G BdB|G2G B2G BdB|"C"C2C E2C EGE|"D"D2D F2D FAF:|\
"G"G2G g2d BdB|"G"G2G g2d BdB|
"C"c2c e2c ege|"D"d2d f2d faf|"G"gdB gdB gdB|gdB gdB gdB|\
"C"ece ece ece|"D"fdf fdf fdB||
